usr/share/icons/biglinux-icons-material/scalable/apps/firefox-dev.svg

<svg xmlns="http://www.w3.org/2000/svg" xmlns:xlink="http://www.w3.org/1999/xlink" xml:space="preserve" width="24" height="24" viewBox="0 0 6.35 6.35"><defs><linearGradient id="a"><stop offset="0" style="stop-color:#262532;stop-opacity:1"/><stop offset="1" style="stop-color:#b3b3b3;stop-opacity:1"/></linearGradient><linearGradient xlink:href="#a" id="b" x1="192.406" x2="194.928" y1="268.376" y2="-379.902" gradientUnits="userSpaceOnUse"/><linearGradient xlink:href="#a" id="c" x1="192.406" x2="194.928" y1="268.376" y2="-379.902" gradientUnits="userSpaceOnUse"/></defs><g style="fill:url(#b);fill-opacity:1;stroke-width:23.0144"><path d="M148.375 1.961c2.07.023 4.047-.242 5.93-.789a545.854 545.854 0 0 1 74.343.195c22.469 1.75 44.219 6.625 65.25 14.625 34.965 14.395 58.887 39.36 71.774 74.899a246.354 246.354 0 0 1 13.051 66.007 482.597 482.597 0 0 1-1.981 84.981c-2.363 19.867-7.504 38.969-15.422 57.312-14.683 31.801-38.472 53.739-71.375 65.809-26.664 9.008-54.082 13.754-82.254 14.23-31.691 1.649-63.058-.722-94.117-7.113-57.16-12.73-92.418-47.582-105.781-104.543a328.944 328.944 0 0 1-7.711-77.867 319.253 319.253 0 0 1 8.898-82.609C22.988 53.84 56.797 20.836 110.414 8.086a241.29 241.29 0 0 1 37.961-6.125Z" style="fill:url(#c);fill-opacity:1;fill-rule:evenodd;stroke:none;stroke-width:23.0144" transform="matrix(.01533 0 0 .01533 .265 .265)"/></g><g stroke-width="4.417"><path fill="#209af9" d="M15.093 5.809c-.31-.748-.941-1.555-1.435-1.81a7.431 7.431 0 0 1 .724 2.17l.002.013c-.809-2.016-2.18-2.83-3.3-4.6a8.66 8.66 0 0 1-.169-.273 2.248 2.248 0 0 1-.079-.148 1.302 1.302 0 0 1-.106-.283.018.018 0 0 0-.017-.019.025.025 0 0 0-.013 0l-.004.002-.005.003.003-.006c-1.796 1.052-2.406 3-2.462 3.974a3.578 3.578 0 0 0-1.969.758 2.138 2.138 0 0 0-.184-.14 3.316 3.316 0 0 1-.02-1.748 5.298 5.298 0 0 0-1.722 1.33h-.003c-.284-.358-.264-1.543-.248-1.79a1.278 1.278 0 0 0-.238.127 5.209 5.209 0 0 0-.7.599 6.246 6.246 0 0 0-.668.802 6.04 6.04 0 0 0-.96 2.167l-.01.047c-.013.063-.061.378-.07.447l-.001.016a6.817 6.817 0 0 0-.116.986v.036a7.153 7.153 0 0 0 14.2 1.21c.013-.092.022-.184.033-.277a7.356 7.356 0 0 0-.464-3.593Zm-8.244 5.599c.034.016.065.033.1.049l.004.003Zm7.535-5.224v-.008l.002.008z" style="stroke-width:4.41678" transform="matrix(.287 0 0 .287 .745 .813)"/><path fill="#3bbfff" d="m11.618 6.646.044.032a3.894 3.894 0 0 0-.664-.866C8.775 3.589 10.415.99 10.692.859l.003-.004C8.898 1.906 8.289 3.854 8.233 4.828c.083-.006.166-.013.251-.013a3.61 3.61 0 0 1 3.134 1.83z" style="stroke-width:4.41678" transform="matrix(.287 0 0 .287 .745 .813)"/><path fill="#2a55c4" d="M8.488 7.09c-.012.178-.64.792-.86.792-2.034 0-2.364 1.23-2.364 1.23.09 1.036.812 1.89 1.685 2.34.04.021.08.04.12.058q.105.047.21.086a3.18 3.18 0 0 0 .93.18c3.566.167 4.256-4.263 1.684-5.549a2.47 2.47 0 0 1 1.724.42 3.61 3.61 0 0 0-3.134-1.831c-.084 0-.168.007-.25.013a3.578 3.578 0 0 0-1.97.758c.11.093.233.216.492.472.485.478 1.73.973 1.733 1.031Z" style="stroke-width:4.41678" transform="matrix(.287 0 0 .287 .745 .813)"/><path fill="#1d97f8" d="M5.93 5.347c.058.037.106.07.148.098a3.316 3.316 0 0 1-.02-1.748 5.298 5.298 0 0 0-1.722 1.33c.035 0 1.073-.02 1.594.32z" style="stroke-width:4.41678" transform="matrix(.287 0 0 .287 .745 .813)"/><path fill="#3bbfff" d="M1.388 8.633c.552 3.261 3.508 5.752 6.864 5.847 3.106.088 5.09-1.715 5.91-3.474a6.478 6.478 0 0 0 .223-4.828v-.014l.001.012c.254 1.657-.589 3.262-1.906 4.347l-.004.01c-2.567 2.09-5.023 1.26-5.52.922l-.104-.052c-1.497-.715-2.115-2.078-1.983-3.248A1.837 1.837 0 0 1 3.175 7.09a2.698 2.698 0 0 1 2.63-.106 3.562 3.562 0 0 0 2.685.106c-.003-.059-1.247-.554-1.733-1.032-.259-.256-.382-.379-.491-.471a2.138 2.138 0 0 0-.185-.14l-.147-.098c-.522-.34-1.56-.32-1.594-.32h-.003c-.284-.359-.264-1.544-.248-1.791a1.278 1.278 0 0 0-.238.127 5.209 5.209 0 0 0-.7.599 6.246 6.246 0 0 0-.67.8 6.04 6.04 0 0 0-.96 2.167c-.004.015-.258 1.126-.133 1.702Z" style="stroke-width:4.41678" transform="matrix(.287 0 0 .287 .745 .813)"/><path fill="#097cf4" d="M10.998 5.818a3.894 3.894 0 0 1 .664.867c.04.03.076.06.108.088 1.621 1.495.772 3.608.708 3.758 1.318-1.085 2.16-2.69 1.906-4.347-.809-2.017-2.18-2.83-3.3-4.6a8.66 8.66 0 0 1-.169-.274 2.248 2.248 0 0 1-.078-.148A1.302 1.302 0 0 1 10.73.88a.018.018 0 0 0-.016-.018.025.025 0 0 0-.014 0l-.003.001-.005.003c-.277.131-1.917 2.729.306 4.952z" style="stroke-width:4.41678" transform="matrix(.287 0 0 .287 .745 .813)"/><path fill="#1d97f8" d="M11.768 6.768a1.499 1.499 0 0 0-.107-.088l-.045-.033a2.47 2.47 0 0 0-1.724-.419c2.572 1.287 1.882 5.716-1.683 5.549a3.18 3.18 0 0 1-.93-.18q-.106-.039-.21-.086a1.925 1.925 0 0 1-.122-.057l.005.003c.498.34 2.953 1.169 5.52-.922l.005-.01c.064-.15.913-2.263-.709-3.757z" style="stroke-width:4.41678" transform="matrix(.287 0 0 .287 .745 .813)"/><path fill="#1d97f8" d="M5.264 9.112s.33-1.23 2.364-1.23c.22 0 .849-.614.86-.792a3.562 3.562 0 0 1-2.685-.105 2.698 2.698 0 0 0-2.63.105 1.837 1.837 0 0 0 1.694 1.066c-.132 1.17.486 2.533 1.983 3.248.033.016.064.033.099.049-.874-.451-1.595-1.305-1.685-2.34Z" style="stroke-width:4.41678" transform="matrix(.287 0 0 .287 .745 .813)"/></g></svg>

<?xml version="1.0" encoding="UTF-8" standalone="no"?>
<!-- Created with Inkscape (http://www.inkscape.org/) -->

<svg
   width="24"
   height="24"
   viewBox="0 0 6.3499999 6.3500002"
   version="1.1"
   id="svg5"
   xml:space="preserve"
   sodipodi:docname="org.mozilla.FirefoxDeveloperEdition.svg"
   inkscape:version="1.3 (0e150ed6c4, 2023-07-21)"
   xmlns:inkscape="http://www.inkscape.org/namespaces/inkscape"
   xmlns:sodipodi="http://sodipodi.sourceforge.net/DTD/sodipodi-0.dtd"
   xmlns:xlink="http://www.w3.org/1999/xlink"
   xmlns="http://www.w3.org/2000/svg"
   xmlns:svg="http://www.w3.org/2000/svg"><sodipodi:namedview
     id="namedview7"
     pagecolor="#ffffff"
     bordercolor="#000000"
     borderopacity="0.25"
     inkscape:showpageshadow="2"
     inkscape:pageopacity="0.0"
     inkscape:pagecheckerboard="0"
     inkscape:deskcolor="#d1d1d1"
     inkscape:document-units="mm"
     showgrid="false"
     inkscape:zoom="9.0609641"
     inkscape:cx="21.355343"
     inkscape:cy="26.763156"
     inkscape:window-width="2560"
     inkscape:window-height="998"
     inkscape:window-x="0"
     inkscape:window-y="0"
     inkscape:window-maximized="1"
     inkscape:current-layer="svg5" /><defs
     id="defs2"><linearGradient
       inkscape:collect="always"
       id="linearGradient18394"><stop
         style="stop-color:#262532;stop-opacity:1;"
         offset="0"
         id="stop18390" /><stop
         style="stop-color:#b3b3b3;stop-opacity:1"
         offset="1"
         id="stop18392" /></linearGradient><linearGradient
       inkscape:collect="always"
       xlink:href="#linearGradient18394"
       id="linearGradient18396"
       x1="192.40591"
       y1="268.37564"
       x2="194.92839"
       y2="-379.90247"
       gradientUnits="userSpaceOnUse" /><linearGradient
       inkscape:collect="always"
       xlink:href="#linearGradient18394"
       id="linearGradient18857"
       gradientUnits="userSpaceOnUse"
       x1="192.40591"
       y1="268.37564"
       x2="194.92839"
       y2="-379.90247" /></defs><g
     id="g192-1"
     transform="matrix(0.0153286,0,0,0.0153286,0.26458557,0.26457559)"
     style="fill:url(#linearGradient18396);fill-opacity:1;stroke-width:23.0144"
     inkscape:export-filename="g192.svg"
     inkscape:export-xdpi="24.269279"
     inkscape:export-ydpi="24.269279"><path
       d="m 148.375,1.961 c 2.07,0.023 4.047,-0.242 5.93,-0.789 24.785,-1.625 49.566,-1.559 74.343,0.195 22.469,1.75 44.219,6.625 65.25,14.625 34.965,14.395 58.887,39.36 71.774,74.899 7.367,21.398 11.719,43.402 13.051,66.007 1.839,28.391 1.179,56.715 -1.981,84.981 -2.363,19.867 -7.504,38.969 -15.422,57.312 -14.683,31.801 -38.472,53.739 -71.375,65.809 -26.664,9.008 -54.082,13.754 -82.254,14.23 C 176,380.879 144.633,378.508 113.574,372.117 56.414,359.387 21.156,324.535 7.793,267.574 2.125,241.93 -0.445,215.977 0.082,189.707 -0.551,161.773 2.418,134.238 8.98,107.098 22.988,53.84 56.797,20.836 110.414,8.086 122.906,5.035 135.559,2.992 148.375,1.961 Z"
       style="fill:url(#linearGradient18857);fill-opacity:1;fill-rule:evenodd;stroke:none;stroke-width:23.0144"
       id="path194-8" /></g><g
     stroke-width="4.41678"
     id="g28364"
     transform="matrix(0.28700085,0,0,0.28700085,0.74521705,0.81294759)"><path
       d="M 15.093,5.809 C 14.783,5.061 14.152,4.254 13.658,3.999 a 7.431,7.431 0 0 1 0.724,2.17 l 0.002,0.013 c -0.809,-2.016 -2.18,-2.83 -3.3,-4.6 A 8.66,8.66 0 0 1 10.915,1.309 2.248,2.248 0 0 1 10.836,1.161 1.302,1.302 0 0 1 10.73,0.878 0.018,0.018 0 0 0 10.713,0.859 0.025,0.025 0 0 0 10.7,0.859 L 10.696,0.861 10.691,0.864 10.694,0.858 C 8.898,1.91 8.288,3.858 8.232,4.832 A 3.578,3.578 0 0 0 6.263,5.59 2.138,2.138 0 0 0 6.079,5.45 3.316,3.316 0 0 1 6.059,3.702 5.298,5.298 0 0 0 4.337,5.032 H 4.334 C 4.05,4.674 4.07,3.489 4.086,3.242 A 1.278,1.278 0 0 0 3.848,3.369 5.209,5.209 0 0 0 3.148,3.968 6.246,6.246 0 0 0 2.48,4.77 6.04,6.04 0 0 0 1.52,6.937 L 1.51,6.984 C 1.497,7.047 1.449,7.362 1.44,7.431 L 1.439,7.447 A 6.817,6.817 0 0 0 1.323,8.433 v 0.036 a 7.153,7.153 0 0 0 14.2,1.21 C 15.536,9.587 15.545,9.495 15.556,9.402 A 7.356,7.356 0 0 0 15.092,5.809 Z m -8.244,5.599 c 0.034,0.016 0.065,0.033 0.1,0.049 L 6.953,11.46 Z M 14.384,6.184 V 6.176 l 0.002,0.008 z"
       fill="#209af9"
       id="path28348"
       style="stroke-width:4.41678" /><path
       d="m 11.618,6.646 0.044,0.032 A 3.894,3.894 0 0 0 10.998,5.812 C 8.775,3.589 10.415,0.99 10.692,0.859 L 10.695,0.855 C 8.898,1.906 8.289,3.854 8.233,4.828 8.316,4.822 8.399,4.815 8.484,4.815 a 3.61,3.61 0 0 1 3.134,1.83 z"
       fill="#3bbfff"
       id="path28350"
       style="stroke-width:4.41678" /><path
       d="m 8.488,7.09 c -0.012,0.178 -0.64,0.792 -0.86,0.792 -2.034,0 -2.364,1.23 -2.364,1.23 0.09,1.036 0.812,1.89 1.685,2.34 0.04,0.021 0.08,0.04 0.12,0.058 q 0.105,0.047 0.21,0.086 a 3.18,3.18 0 0 0 0.93,0.18 c 3.566,0.167 4.256,-4.263 1.684,-5.549 a 2.47,2.47 0 0 1 1.724,0.42 3.61,3.61 0 0 0 -3.134,-1.831 c -0.084,0 -0.168,0.007 -0.25,0.013 A 3.578,3.578 0 0 0 6.263,5.587 C 6.373,5.68 6.496,5.803 6.755,6.059 7.24,6.537 8.485,7.032 8.488,7.09 Z"
       fill="#2a55c4"
       id="path28352"
       style="stroke-width:4.41678" /><path
       d="m 5.93,5.347 c 0.058,0.037 0.106,0.07 0.148,0.098 A 3.316,3.316 0 0 1 6.058,3.697 5.298,5.298 0 0 0 4.336,5.027 c 0.035,0 1.073,-0.02 1.594,0.32 z"
       fill="#1d97f8"
       id="path28354"
       style="stroke-width:4.41678" /><path
       d="m 1.388,8.633 c 0.552,3.261 3.508,5.752 6.864,5.847 3.106,0.088 5.09,-1.715 5.91,-3.474 A 6.478,6.478 0 0 0 14.385,6.178 V 6.164 l 10e-4,0.012 c 0.254,1.657 -0.589,3.262 -1.906,4.347 l -0.004,0.01 c -2.567,2.09 -5.023,1.26 -5.52,0.922 L 6.852,11.403 C 5.355,10.688 4.737,9.325 4.869,8.155 A 1.837,1.837 0 0 1 3.175,7.09 2.698,2.698 0 0 1 5.805,6.984 3.562,3.562 0 0 0 8.49,7.09 C 8.487,7.031 7.243,6.536 6.757,6.058 6.498,5.802 6.375,5.679 6.266,5.587 A 2.138,2.138 0 0 0 6.081,5.447 L 5.934,5.349 C 5.412,5.009 4.374,5.029 4.34,5.029 H 4.337 C 4.053,4.67 4.073,3.485 4.089,3.238 a 1.278,1.278 0 0 0 -0.238,0.127 5.209,5.209 0 0 0 -0.7,0.599 6.246,6.246 0 0 0 -0.67,0.8 6.04,6.04 0 0 0 -0.96,2.167 C 1.517,6.946 1.263,8.057 1.388,8.633 Z"
       fill="#3bbfff"
       id="path28356"
       style="stroke-width:4.41678" /><path
       d="m 10.998,5.818 a 3.894,3.894 0 0 1 0.664,0.867 c 0.04,0.03 0.076,0.06 0.108,0.088 1.621,1.495 0.772,3.608 0.708,3.758 1.318,-1.085 2.16,-2.69 1.906,-4.347 -0.809,-2.017 -2.18,-2.83 -3.3,-4.6 A 8.66,8.66 0 0 1 10.915,1.31 2.248,2.248 0 0 1 10.837,1.162 1.302,1.302 0 0 1 10.73,0.88 0.018,0.018 0 0 0 10.714,0.862 a 0.025,0.025 0 0 0 -0.014,0 l -0.003,0.001 -0.005,0.003 c -0.277,0.131 -1.917,2.729 0.306,4.952 z"
       fill="#097cf4"
       id="path28358"
       style="stroke-width:4.41678" /><path
       d="M 11.768,6.768 A 1.499,1.499 0 0 0 11.661,6.68 L 11.616,6.647 A 2.47,2.47 0 0 0 9.892,6.228 c 2.572,1.287 1.882,5.716 -1.683,5.549 a 3.18,3.18 0 0 1 -0.93,-0.18 Q 7.173,11.558 7.069,11.511 C 7.028,11.493 6.987,11.475 6.947,11.454 l 0.005,0.003 c 0.498,0.34 2.953,1.169 5.52,-0.922 l 0.005,-0.01 c 0.064,-0.15 0.913,-2.263 -0.709,-3.757 z"
       fill="#1d97f8"
       id="path28360"
       style="stroke-width:4.41678" /><path
       d="m 5.264,9.112 c 0,0 0.33,-1.23 2.364,-1.23 0.22,0 0.849,-0.614 0.86,-0.792 A 3.562,3.562 0 0 1 5.803,6.985 2.698,2.698 0 0 0 3.173,7.09 1.837,1.837 0 0 0 4.867,8.156 c -0.132,1.17 0.486,2.533 1.983,3.248 0.033,0.016 0.064,0.033 0.099,0.049 C 6.075,11.002 5.354,10.148 5.264,9.113 Z"
       fill="#1d97f8"
       id="path28362"
       style="stroke-width:4.41678" /></g></svg>
